dist/svg/iam.svg

<!-- Generated by Trend Micro Style Portal -->
<svg version="1.1" xmlns="http://www.w3.org/2000/svg" width="16" height="16" viewBox="0 0 16 16">
  <title>iam</title>
  <path fill="rgb(34,34,34)" d="M15 8h-2.5c-0.552 0-1 0.448-1 1v2l-1 1h-1v1h-1v1l-0.5 0.5v1.5h1.5l3.5-3.5h2c0.552 0 1-0.448 1-1v-2.5c0-0.552-0.448-1-1-1zM14.444 10.222c-0.368 0-0.666-0.298-0.666-0.667s0.299-0.667 0.666-0.667c0.368 0 0.667 0.298 0.667 0.667s-0.298 0.667-0.667 0.667zM4.498 3.988c0 1.19 0.693 2.218 1.716 2.711l0.284 0.136v1.24l-0.434 0.107c-1.316 0.36-2.49 1.061-3.423 2.003-0.866 0.881-1.901 2.499-1.588 3.245 0.198 0.471 1.298 0.57 1.944 0.57h4.003v1h-4.003c-1.382 0-2.537-0.399-2.866-1.184-0.582-1.39 0.92-3.441 1.797-4.333l0.001-0.001c0.931-0.937 2.072-1.666 3.408-2.129l-0.016-0.009c-1.096-0.703-1.823-1.933-1.823-3.332v-0.012c0-2.209 1.791-4 4-4s4 1.791 4 4v0.013c0 1.378-0.705 2.591-1.789 3.308l0.048 0.013c0.255 0.083 0.503 0.184 0.74 0.293v1.112c-0.411-0.206-0.957-0.439-1.601-0.594l-0.398-0.082v-1.228l0.284-0.136 0.018-0.008c1.005-0.484 1.698-1.513 1.698-2.703 0-1.657-1.343-3-3-3s-3 1.343-3 3z"></path>
</svg>

<svg width="16" height="16" viewBox="0 0 16 16" fill="rgb(34, 34, 34)" xmlns="http://www.w3.org/2000/svg"><title>IAM</title><g clip-path="url(#clip0_281_989)"><path d="M15 8H12.5C11.948 8 11.5 8.448 11.5 9V11L10.5 12H9.5V13H8.5V14L8 14.5V16H9.5L13 12.5H15C15.552 12.5 16 12.052 16 11.5V9C16 8.448 15.552 8 15 8ZM14.444 10.222C14.076 10.222 13.778 9.924 13.778 9.555C13.778 9.186 14.077 8.888 14.444 8.888C14.812 8.888 15.111 9.186 15.111 9.555C15.111 9.924 14.813 10.222 14.444 10.222ZM4.498 3.988C4.498 5.178 5.191 6.206 6.214 6.699L6.498 6.835V8.075L6.064 8.182C4.748 8.542 3.574 9.243 2.641 10.185C1.775 11.066 0.740003 12.684 1.053 13.43C1.251 13.901 2.351 14 2.997 14H7V15H2.997C1.615 15 0.460002 14.601 0.131002 13.816C-0.450998 12.426 1.051 10.375 1.928 9.483L1.929 9.482C2.86 8.545 4.001 7.816 5.337 7.353L5.321 7.344C4.225 6.641 3.498 5.411 3.498 4.012V4C3.498 1.791 5.289 0 7.498 0C9.707 0 11.498 1.791 11.498 4V4.013C11.498 5.391 10.793 6.604 9.709 7.321L9.757 7.334C10.012 7.417 10.26 7.518 10.497 7.627V8.739C10.086 8.533 9.54 8.3 8.896 8.145L8.498 8.063V6.835L8.782 6.699L8.8 6.691C9.805 6.207 10.498 5.178 10.498 3.988C10.498 2.331 9.155 0.988 7.498 0.988C5.841 0.988 4.498 2.331 4.498 3.988Z" fill="rgb(34, 34, 34)" fill-opacity="1.00"/></g><defs><clipPath id="clip0_281_989"><rect width="16" height="16" fill="rgb(34, 34, 34)"/></clipPath></defs></svg>
